X:1
T:Rossingnolet
T:Rossingnolet
T:Thomas Crecquillon
C:Thomas Crecquillon
%%score [ 1 [ 2 3 4 ] ]
L:1/8
Q:1/4=80
M:2/2
K:C
V:1 treble nm="Superius" snm="S"
V:2 treble-8 nm="Tenor 1" snm="T 1"
V:3 treble-8 nm="Tenor 2" snm="T 2"
V:4 treble-8 nm="Tenor 3" snm="T 3"
V:1
 G2 cB cdee | d2 c3 B BA/G/ | A4 G4 | z4 z2 G2 | cBcd e2 e2 | d2 c2 d2 e2- | e2 dc B2 c2 | %7
w: Ros- sin- gno- let qui chan- tez|au- _ _ vert _ _|_ bois,|ros-|sin- gno- let qui chan- tez|au vert _ _|_ _ _ bois, ros-|
 AGAB cA d2- | dc c4 B2 | c4 z2 G2 | A2 c2 BA GF | E2 A4 G2- | G2 F2 G4- | G8 | z4 G2 GA | %15
w: sin- gno- let qui chan- tez au-|* * vert- *|bois, n'a-|vez point veu _ _ _|ma doul- ce'a-|* my- e?|_|Je l'ay per-|
 BcAB c2 BA | B4 z2 G2 | GA Bc AB c2- | cB BA/G/ AG AB | cB cd e2 d2- | d2 c4 B2 | c4 z2 G2 | %22
w: du pas- sé trois mois, _ _|_ je|l'ay _ _ _ _ _ _|_ per- du _ _ _ _ _ _|pas- * * * sé trois|_ _ _|mois, dont|
 A2 F2 G2 G2 | A2 c2 B2 A2- |"^#" AG G4 F2 | G4 z4 | G2 AA BGcB | A2 GG AccB | c2 G2 GGFF | %29
w: tous les jours tant|il m'en- nuy- *||e,|or, re- ve- nez, gen- til fil-|let- te car je suis vos- tre'a-|my, car je suis vos- tre'a-|
 G2 C2 DD E2 | z2 G2 AA B2 | z4 G2 AA | BGcB A2 GG | AccB c2 G2 | AccB c2 G2 | G2 A4 G2- | %36
w: my, or, re- ve- nez,|or, re- ve- nez,|or, re- ve-|nez, gen- til fil- let- te, car|je suis vos- tre'a- my car|je suis vos- tre'a- my, car|je suis vos-|
 G2 F2 G4 | z2 G2 GAGF | E2 D2 G2 C2 | z4 z2 c2 | cBGA Bc A2 | GGGF DE F2 | G2 F2 ED EF | %43
w: * stre'a- my,|Cueil- lir i- rons la|vi- o- let- te,|cueil-|lir i- rons la vi- o- let|te,- cueil- lir i- rons la vi-|o- let- * * * *|
 G2 C2 GABc | d2 c3 B B2- | BA A3 G G2- | G2 F2 G4 | c2 BG AA G2 | z2 c2 BGAA | GGFD EF G2 | %50
w: te,- cueil- lir- i- rons la|vi- o- * let-||* * te|pour pas- ser tout en- nuy,|pour pas- ser tout en-|nuy, pour pas- ser tout en- nuy,|
 z2 c2 BGAA | GGFD EFGA | Bc d3 c c2- | c2 B2 c2 G2 | AABG c2 B2 | A4 G4- | G8 |] %57
w: pour pas- ser tour en-|nuy, pour pas- ser tout en- nuy, pour|pas- ser tout _ en-|* * nuy, or,-|re- ve- nez, gen- til fil-|let- te.|_|
V:2
 z4 z2 c2 | fefg a2 g2 | g2 f2 g4 | z8 | z2 c2 gfga | b2 a3 g g2- | g2 f2 g4 | z2 a2 a2 g2- | %8
w: Ros-|sin- gno- let qui chan- tez|au vert bois,||Ros- sin- gno- let qui|chan- tez _ au|_ vert bois,|qui chan- tez|
 ge f2 g4 | e2 g2 ggee | f2 a2 gf ed | c2 f3 edc | d3 c B2 c2 | e4 d4 | z2 c2 cd ef | defd ef g2 | %16
w: _ _ au vert|bois, n'a- vez point veu ma|doul- ce'a- my- * * *|||* e?|Je- l'ay _ _ _|_ _ per- du pas- sé trois|
 G4 c2 cd | ef de fd ef | g2 G2 d2 c2- | cd ef g4- | g4 z2 g2 | e2 g2 f2 d2 | fe ed/c/ B2 c2 | %23
w: mois, je l'ay _|_ _ _ _ per- * * *|du pas- sé trois|_ _ _ _ mois,|_ dont|tous les jours tant|il _ _ _ _ _ m'en-|
 e3 f g2 f2 | e2 c2 d4 | B4 c2 dd | e4 z2 c2 | ddec fe d2 | c2 d2 eedd | B2 z2 z2 c2 | ddec fe d2 | %31
w: |* * nuy-|e, or, re- ve-|nez, or,|re- ve- nez, gen- til fil- let-|te car je suis vos- tre'a-|my, or,|re- ve- nez, gen- til fil- let-|
 c2 z d eggf | g2 z G AccB | c2 g2 gfed | c2 z g gfed | ed c3 d B2 | A2 d3 B e2 | d4 e4 | z8 | %39
w: te- car je suis vos- tre'a-|my, car je suis vos- tre'a-|my car je suis vos- tre'a-|my, car je suis vos- tre'a-||* * my, vos-|tre'a- my,||
 g2 gf defg | e4 de fd | e2 z G GGdd | Bc A2 Gggf | defg e2 d2- | de f2 ga g2- | g2 f2 d2 e2- | %46
w: cueil- lir i- rons la vi- o-|let _ _ _ _|te, cueil- lir i- rons la|vi- o- let- te, cueil- lir i-|rons la vi- let- * *|||
 e2 dc BG g2 | fdee d2 z2 | g2 ef gdff | eedd G2 z2 | g2 ef gdff | e2 d2 g4 | z2 g2 g2 f2 | %53
w: * * * * te pour|pas- ser tout en- nuy,|pour pas- ser tout en- nuy, pour|pas- ser tout en- nuy,|pour pas- ser tout en- nuy, pour|pas- ser tout,|pour pas- ser|
 g2 g2 e2 e2 | fegd g2 g2 | f4 e4- | e8 |] %57
w: tout en- nuy, or,|re- ve- nez, gen- til fil-|let- te.|_|
V:3
 z8 | z4 z2 G2 | cBcd e2 e2 | d2 c3 B/A/ B2 | A3 B cd ef | g2 c2 z2 G2 | cB cd e2 e2 | %7
w: |Ros-|sin- gno- let qui chan- tez|au vert _ _ _|_ _ _ _ _ _|* bois, ros-|sin- * * * * gno-|
 d2 c2 f2 d2 | e2 dc d4 | c4 z4 | c2 ff d2 e2- | ed cB c2 B2 | A2 d3 B e2- | ed c4 B2 | c2 A2 c4 | %15
w: let qui chan- tez|au _ _ vert|bois,|n'a- vez point veu ma|_ _ _ _ doul- ce'a-|||* * e?|
 z8 | d2 de fg ef | g4 c2 cd | ef de f2 f2 | e3 d c2 d2 | e3 d/c/ d4 | c2 e2 d c2 B | %22
w: |je l'ay _ _ _ _ _|_ per _ _|_ _ _ _ du pa-|sé _ _ trois|mois, _ _ _|dont tous tous _ _|
 c d2 c d2 e2- | e2 dc d3 c | B2 AG AB A2 | G4 z4 | z2 c2 dd e2 | z4 z2 G2 | AABG cB A2 | %29
w: les _ _ jours tant|_ il _ m'en- *|* * * * * nuy-|e,|or,- re- ve- nez,|or,|re- ve- nez gen- til fil- let-|
 GGAc cB c2 | G2 ce ddgf | e2 d2 z2 c2 | dd ec fe d2 | c2 z d e3 g | fe d2 c4 | z2 f2 fe dc | %36
w: te car je suis vos- tre'a- my,|or, re- ve- nez fil- let- *|* te car|je suis vos- * * * tre'a-|my car je suis|vos- * stre'a- my,|car je _ _ _|
 Bc A2 G2 c2- | c2 B2 c4 | g2 gf defg | e2 d2 z2 c2 | cd ef g2 c2 | cBGA Bc A2 | G2 c2 cBGA | %43
w: _ _ _ suis vos-|* tre'a- my,|cueil- lir i- rons la vi- o-|let- te, la|vi- o- let- * te cueil-|lir i- rons la vi- o- let-|te, cueil- lir i- rons la|
 Bc A2 G2 g2 | fe c2 d2 e2- | ed c4 B2 | c4 d4 | z2 g2 fdee | decd eBcd | BcAB cdec | decd eBcd | %51
w: vi- o- let- * *|||* te|pour pas- ser tout en-|nuy, pour pas- ser tout en- nuy, pour|pas- ser tout en- nuy, pour pas- ser|tout en- nuy, pour pas- ser tout en-|
 BcAB cd ef | g3 f e2 dc | d4 c4 | c2 dd e2 e2 | c2 A2 c4- | c8 |] %57
w: nuy, pour pas- ser tout _ _ _|_ en- * * *|nuy, or,|re- ve- nez gen- til|fil- let- te.|_|
V:4
 z8 | z8 | z4 z2 C2 | FEFG A2 G2 | F3 E C2 c2 | G2 A2 B3 c | A4 G2 C2 | FEFG A2 B2 | c2 A2 G4 | %9
w: ||Ros-|sin- gno- let qui chan- tez|au _ _ vert-||* bois, ros-|sin- gno- let qui chan- tez|au _ vert|
 C4 c2 cc | F2 F2 G2 G2 | A3 G F2 G2 | D4 z2 C2 | CDEF G3 F | E2 F2 C4 | z4 z2 e2 | GA Bc AB c2 | %17
w: bois, n'a- vez point|veu ma doul- ce'a-|my- * * *|e? Je|l'ay per- du pas- sé _|_ trois mois,|je|l'ay _ _ _ _ _ _|
 z2 G2 A2 A2 | G3 F D2 F2 | C2 c4 B2 | c2 C2 G4 | z2 C2 F2 G2 | F2 A2 G2 c2- | c2 BA G2 D2 | %24
w: per- du pas-|sé _ _ trois|mois, pas- *|sé trois mois,|dont tous les|jours tant- il m'en-||
 E4 D4 | z2 G2 AABG | cB A2 GBAG | F2 C2 z4 | z4 C2 DD | EC FE D2 C2 | z4 z2 G2 | AABG cB A2 | %32
w: nuy- e,|or, re- ve- nez, gen-|til fil- let- te, gen- til fil-|let- te,|or, re- ve-|nez, or re- * ve- nez,|or,|re- ve- nez, gen- til fil- let-|
 G2 z2 F2 GB | AA G2 z2 C2 | FCGG C2 c2 | cB AG F2 G2 | D4 E2 C2 | G4 C2 c2 | cBGA Bc A2 | %39
w: te car je suis|vos- tre'a- my car|je suis vos- tre'a- my, car|je _ _ _ _ _|_ suis vos-|tre'a- my, cueil-|lir i- rons la vi- o- let|
 GCGA BGAB | c4 G2 F2 | CDEF GC D2 | E2 F2 C4 | z2 c2 cBGA | Bc A2 G2 G2 | E2 F2 G4 | A4 G4 | %47
w: te, cueil- lir i- rons la vi- o-|let- te, cueil-|lir i- rons la vi- o- let-|* * te,|cueil- lir- i- rons la|vi- o- let- te, la|vi- o- let-|* te|
 z4 z2 c2 | BGAA EGFD | EC D2 C2 c2 | BGAA EGFD | EC D2 C2 c2 | c2 B2 c2 A2 | G4 z2 C2 | %54
w: pour|pas- ser tout en- nuy, pour pas- ser-|tout _ en- nuy, pour|pas- ser tout en- nuy, pour pas- ser|tout _ en- nuy, pour|pas- ser tout en-|nuy, or,|
 FAGG C2 E2 | F4 C4- | C8 |] %57
w: re- ve- nez gen- til fil-|let te.|_|

